catenergy/img/logo-mobile-header.svg

<svg width="101pt" height="24" viewBox="0 0 101 18" xmlns="http://www.w3.org/2000/svg"><path d="M2.81 0h4.41c3.06.81 3.33 3.98 3.56 6.6l-3.88.03c-.23-1.86-.23-4.07-2.67-4.01-.13 4.08-.5 8.21.14 12.27 2.39 1.44 2.3-2.24 2.5-3.66.99.02 2.97.05 3.96.07-.28 2.57-.59 5.45-3.23 6.7H2.99c-.87-1.13-1.87-2.15-2.99-3.03V3.14C1.05 2.21 2.13 1.25 2.81 0zm29.55 0h.11c.04.73.11 2.19.15 2.93l-2.74.32c.01 4.92.03 9.83-.09 14.75H26.2c-.57-4.92-.29-9.88-.31-14.82-.69-.03-2.07-.08-2.76-.1-.01-.72-.02-2.14-.02-2.86C26.19.21 29.28.14 32.36 0zm16.35 0h1.55c1.9 3.78 3.46 7.72 5.22 11.57.02-3.85.02-7.71.05-11.57h2.03c.11 6 .1 12 .01 18h-1.16c-2.23-3.77-3.68-7.92-5.49-11.9-.03 3.97-.03 7.93-.13 11.9h-2.06c-.08-6-.05-12-.02-18zm34.54 0h2.98c2.77.63 3.27 3.34 3.69 5.72-.61.07-1.84.22-2.45.3-.27-1.32-.54-2.65-.8-3.97-1.46.27-3.96-.33-3.79 1.95-.25 3.84-.75 7.92.54 11.62 4.17 2.49 6.04-6 1.12-5.54 1.46-1.23 3.44-.97 5.22-1.17 0 3.03-.02 6.06-.08 9.09H88.4c-.78-1.63-1.36-1.63-1.73 0h-3.33c-3.72-1.39-3.23-5.8-3.29-9 .07-3.22-.41-7.48 3.2-9zm7.58 0h2.11c1.54 2.41 1.54 5.71 3.06 7.89 1.63-2.06 1.28-5.41 2.43-7.89h1.97c-.66 6.1-4.05 11.64-3.53 17.95l3.88.05h-5.98c.67-6.33-2.06-12.13-3.94-18zM15.2.22C16.74.2 18.29.19 19.83.18c1.1 5.86 2.23 11.71 3.35 17.56-.93.01-2.78.02-3.71.02-.22-1.25-.45-2.5-.67-3.75-.65.03-1.93.07-2.57.09-.11.89-.33 2.66-.45 3.55-1.31.05-2.62.09-3.94.13 1.1-5.86 2.3-11.7 3.36-17.56m1.44 11.32c.45.08 1.34.22 1.78.3-.25-2.15-.53-4.3-.84-6.45-.34 2.05-.64 4.1-.94 6.15zM39.69.18c2.34 0 4.69.01 7.03.02l-.04 1.85-4.44.03c.01 1.88.01 3.76.01 5.64 1.43.39 4.09-.74 3.98 1.78-1.33.07-2.65.12-3.97.17-.01 2.09-.01 4.17-.02 6.25l4.5.03.05 1.79c-2.37.01-4.74.01-7.1.01-.01-5.85-.01-11.71 0-17.57zm20.36.01c2.36-.01 4.72-.01 7.08 0l-.01 1.86-4.49.03V7.8c.93.01 2.79.02 3.72.02.85 2.63-2.45 1.42-3.72 1.96v6.15c1.5 0 3 .01 4.5.02v1.8h-7.08c.01-5.86.01-11.71 0-17.56zM69.06.1c2.52.22 5.32-.27 7.58 1.09 2.44 2.31 1.34 6.11-.59 8.38.79 2.79 1.53 5.59 2.12 8.43h-1.85c-1.86-2.73-1.09-7.66-4.62-8.79-.08 2.93-.09 5.86-.13 8.79h-2.32c-.41-5.96-.12-11.93-.19-17.9m2.58 1.69c-.01 2.04.01 4.09.03 6.13 1.19-.24 2.39-.48 3.59-.71.05-.82.16-2.46.21-3.28-.04-2.06-2.48-1.67-3.83-2.14z" fill="#111"/></svg>

<?xml version="1.0" encoding="UTF-8" ?>
<!DOCTYPE svg PUBLIC "-//W3C//DTD SVG 1.1//EN" "http://www.w3.org/Graphics/SVG/1.1/DTD/svg11.dtd">
<svg width="101pt" height="18pt" viewBox="0 0 101 18" version="1.1" xmlns="http://www.w3.org/2000/svg">
<g id="#111111fe">
<path fill="#111111" opacity="1.00" d=" M 2.81 0.00 L 7.22 0.00 C 10.28 0.81 10.55 3.98 10.78 6.60 C 9.49 6.61 8.20 6.62 6.90 6.63 C 6.67 4.77 6.67 2.56 4.23 2.62 C 4.10 6.70 3.73 10.83 4.37 14.89 C 6.76 16.33 6.67 12.65 6.87 11.23 C 7.86 11.25 9.84 11.28 10.83 11.30 C 10.55 13.87 10.24 16.75 7.60 18.00 L 2.99 18.00 C 2.12 16.87 1.12 15.85 0.00 14.97 L 0.00 3.14 C 1.05 2.21 2.13 1.25 2.81 0.00 Z" />
<path fill="#111111" opacity="1.00" d=" M 32.36 0.00 L 32.47 0.00 C 32.51 0.73 32.58 2.19 32.62 2.93 C 31.93 3.01 30.56 3.17 29.88 3.25 C 29.89 8.17 29.91 13.08 29.79 18.00 L 26.20 18.00 C 25.63 13.08 25.91 8.12 25.89 3.18 C 25.20 3.15 23.82 3.10 23.13 3.08 C 23.12 2.36 23.11 0.94 23.11 0.22 C 26.19 0.21 29.28 0.14 32.36 0.00 Z" />
<path fill="#111111" opacity="1.00" d=" M 48.71 0.00 L 50.26 0.00 C 52.16 3.78 53.72 7.72 55.48 11.57 C 55.50 7.72 55.50 3.86 55.53 0.00 L 57.56 0.00 C 57.67 6.00 57.66 12.00 57.57 18.00 L 56.41 18.00 C 54.18 14.23 52.73 10.08 50.92 6.10 C 50.89 10.07 50.89 14.03 50.79 18.00 L 48.73 18.00 C 48.65 12.00 48.68 6.00 48.71 0.00 Z" />
<path fill="#111111" opacity="1.00" d=" M 83.25 0.00 L 86.23 0.00 C 89.00 0.63 89.50 3.34 89.92 5.72 C 89.31 5.79 88.08 5.94 87.47 6.02 C 87.20 4.70 86.93 3.37 86.67 2.05 C 85.21 2.32 82.71 1.72 82.88 4.00 C 82.63 7.84 82.13 11.92 83.42 15.62 C 87.59 18.11 89.46 9.62 84.54 10.08 C 86.00 8.85 87.98 9.11 89.76 8.91 C 89.76 11.94 89.74 14.97 89.68 18.00 L 88.40 18.00 C 87.62 16.37 87.04 16.37 86.67 18.00 L 83.34 18.00 C 79.62 16.61 80.11 12.20 80.05 9.00 C 80.12 5.78 79.64 1.52 83.25 0.00 Z" />
<path fill="#111111" opacity="1.00" d=" M 90.83 0.00 L 92.94 0.00 C 94.48 2.41 94.48 5.71 96.00 7.89 C 97.63 5.83 97.28 2.48 98.43 0.00 L 100.40 0.00 C 99.74 6.10 96.35 11.64 96.87 17.95 L 100.75 18.00 L 94.77 18.00 C 95.44 11.67 92.71 5.87 90.83 0.00 Z" />
<path fill="#111111" opacity="1.00" d=" M 15.20 0.22 C 16.74 0.20 18.29 0.19 19.83 0.18 C 20.93 6.04 22.06 11.89 23.18 17.74 C 22.25 17.75 20.40 17.76 19.47 17.76 C 19.25 16.51 19.02 15.26 18.80 14.01 C 18.15 14.04 16.87 14.08 16.23 14.10 C 16.12 14.99 15.90 16.76 15.78 17.65 C 14.47 17.70 13.16 17.74 11.84 17.78 C 12.94 11.92 14.14 6.08 15.20 0.22 M 16.64 11.54 C 17.09 11.62 17.98 11.76 18.42 11.84 C 18.17 9.69 17.89 7.54 17.58 5.39 C 17.24 7.44 16.94 9.49 16.64 11.54 Z" />
<path fill="#111111" opacity="1.00" d=" M 39.69 0.18 C 42.03 0.18 44.38 0.19 46.72 0.20 L 46.68 2.05 C 45.20 2.06 43.72 2.07 42.24 2.08 C 42.25 3.96 42.25 5.84 42.25 7.72 C 43.68 8.11 46.34 6.98 46.23 9.50 C 44.90 9.57 43.58 9.62 42.26 9.67 C 42.25 11.76 42.25 13.84 42.24 15.92 C 43.74 15.93 45.24 15.94 46.74 15.95 L 46.79 17.74 C 44.42 17.75 42.05 17.75 39.69 17.75 C 39.68 11.90 39.68 6.04 39.69 0.18 Z" />
<path fill="#111111" opacity="1.00" d=" M 60.05 0.19 C 62.41 0.18 64.77 0.18 67.13 0.19 L 67.12 2.05 C 65.63 2.06 64.13 2.07 62.63 2.08 C 62.63 3.98 62.63 5.89 62.63 7.80 C 63.56 7.81 65.42 7.82 66.35 7.82 C 67.20 10.45 63.90 9.24 62.63 9.78 C 62.63 11.83 62.63 13.88 62.63 15.93 C 64.13 15.93 65.63 15.94 67.13 15.95 L 67.13 17.75 C 64.77 17.75 62.41 17.75 60.05 17.75 C 60.06 11.89 60.06 6.04 60.05 0.19 Z" />
<path fill="#111111" opacity="1.00" d=" M 69.06 0.10 C 71.58 0.32 74.38 -0.17 76.64 1.19 C 79.08 3.50 77.98 7.30 76.05 9.57 C 76.84 12.36 77.58 15.16 78.17 18.00 L 76.32 18.00 C 74.46 15.27 75.23 10.34 71.70 9.21 C 71.62 12.14 71.61 15.07 71.57 18.00 L 69.25 18.00 C 68.84 12.04 69.13 6.07 69.06 0.10 M 71.64 1.79 C 71.63 3.83 71.65 5.88 71.67 7.92 C 72.86 7.68 74.06 7.44 75.26 7.21 C 75.31 6.39 75.42 4.75 75.47 3.93 C 75.43 1.87 72.99 2.26 71.64 1.79 Z" />
</g>
</svg>
